src/svg/left-arrow.svg

<?xml version="1.0" encoding="UTF-8" standalone="no"?>
<svg
   xmlns:dc="http://purl.org/dc/elements/1.1/"
   xmlns:cc="http://creativecommons.org/ns#"
   xmlns:rdf="http://www.w3.org/1999/02/22-rdf-syntax-ns#"
   xmlns:svg="http://www.w3.org/2000/svg"
   xmlns="http://www.w3.org/2000/svg"
   xmlns:sodipodi="http://sodipodi.sourceforge.net/DTD/sodipodi-0.dtd"
   xmlns:inkscape="http://www.inkscape.org/namespaces/inkscape"
   width="32"
   height="32"
   version="1.1"
   viewBox="0 0 32 32"
   id="svg21"
   sodipodi:docname="left-arrow.svg"
   inkscape:version="0.92.4 5da689c313, 2019-01-14">
  <metadata
     id="metadata25">
    <rdf:RDF>
      <cc:Work
         rdf:about="">
        <dc:format>image/svg+xml</dc:format>
        <dc:type
           rdf:resource="http://purl.org/dc/dcmitype/StillImage" />
      </cc:Work>
    </rdf:RDF>
  </metadata>
  <sodipodi:namedview
     pagecolor="#ffffff"
     bordercolor="#666666"
     borderopacity="1"
     objecttolerance="10"
     gridtolerance="10"
     guidetolerance="10"
     inkscape:pageopacity="0"
     inkscape:pageshadow="2"
     inkscape:window-width="1366"
     inkscape:window-height="696"
     id="namedview23"
     showgrid="false"
     inkscape:zoom="10.429825"
     inkscape:cx="-4.8658327"
     inkscape:cy="20.646577"
     inkscape:window-x="0"
     inkscape:window-y="36"
     inkscape:window-maximized="1"
     inkscape:current-layer="svg21" />
  <defs
     id="defs5">
    <filter
       id="a"
       x="-.12101"
       y="-.11901"
       width="1.242"
       height="1.238"
       color-interpolation-filters="sRGB">
      <feGaussianBlur
         stdDeviation="0.73740225"
         id="feGaussianBlur2" />
    </filter>
    <filter
       inkscape:collect="always"
       style="color-interpolation-filters:sRGB"
       id="filter888"
       x="-0.12242878"
       width="1.2448575"
       y="-0.11766571"
       height="1.2353314">
      <feGaussianBlur
         inkscape:collect="always"
         stdDeviation="0.91821583"
         id="feGaussianBlur890" />
    </filter>
  </defs>
  <path
     inkscape:connector-curvature="0"
     id="path850"
     d="m 12.187765,10.025631 c -0.259774,0.0041 -0.50774,0.109213 -0.691406,0.292969 L 7.961202,13.853756 C 7.6815408,14.133198 7.5927436,14.551159 7.73464,14.920163 l 3.535156,9.193359 c 0.328544,0.855318 1.538644,0.855318 1.867188,0 l 3.535156,-9.193359 c 0.141896,-0.369004 0.0531,-0.786965 -0.226562,-1.066407 L 12.910421,10.3186 c -0.191323,-0.191412 -0.452053,-0.297113 -0.722656,-0.292969 z m 0.01563,2.414063 2.369141,2.369141 -2.369146,6.158203 -2.369141,-6.158203 z"
     style="color:#000000;font-style:normal;font-variant:normal;font-weight:normal;font-stretch:normal;font-size:medium;line-height:normal;font-family:sans-serif;font-variant-ligatures:normal;font-variant-position:normal;font-variant-caps:normal;font-variant-numeric:normal;font-variant-alternates:normal;font-feature-settings:normal;text-indent:0;text-align:start;text-decoration:none;text-decoration-line:none;text-decoration-style:solid;text-decoration-color:#000000;letter-spacing:normal;word-spacing:normal;text-transform:none;writing-mode:lr-tb;direction:ltr;text-orientation:mixed;dominant-baseline:auto;baseline-shift:baseline;text-anchor:start;white-space:normal;shape-padding:0;clip-rule:nonzero;display:inline;overflow:visible;visibility:visible;opacity:0.35;isolation:auto;mix-blend-mode:normal;color-interpolation:sRGB;color-interpolation-filters:linearRGB;solid-color:#000000;solid-opacity:1;vector-effect:none;fill:#000000;fill-opacity:1;fill-rule:nonzero;stroke:none;stroke-width:2;stroke-linecap:round;stroke-linejoin:round;stroke-miterlimit:4;stroke-dasharray:none;stroke-dashoffset:0;stroke-opacity:1;paint-order:stroke fill markers;filter:url(#filter888);color-rendering:auto;image-rendering:auto;shape-rendering:auto;text-rendering:auto;enable-background:accumulate"
     transform="rotate(90,13.478739,18.275349)"
     sodipodi:nodetypes="ccccccccccccccc" />
  <path
     style="color:#000000;font-style:normal;font-variant:normal;font-weight:normal;font-stretch:normal;font-size:medium;line-height:normal;font-family:sans-serif;font-variant-ligatures:normal;font-variant-position:normal;font-variant-caps:normal;font-variant-numeric:normal;font-variant-alternates:normal;font-feature-settings:normal;text-indent:0;text-align:start;text-decoration:none;text-decoration-line:none;text-decoration-style:solid;text-decoration-color:#000000;letter-spacing:normal;word-spacing:normal;text-transform:none;writing-mode:lr-tb;direction:ltr;text-orientation:mixed;dominant-baseline:auto;baseline-shift:baseline;text-anchor:start;white-space:normal;shape-padding:0;clip-rule:nonzero;display:inline;overflow:visible;visibility:visible;opacity:1;isolation:auto;mix-blend-mode:normal;color-interpolation:sRGB;color-interpolation-filters:linearRGB;solid-color:#000000;solid-opacity:1;vector-effect:none;fill:#ffffff;fill-opacity:1;fill-rule:nonzero;stroke:none;stroke-width:2;stroke-linecap:round;stroke-linejoin:round;stroke-miterlimit:4;stroke-dasharray:none;stroke-dashoffset:0;stroke-opacity:1;paint-order:stroke fill markers;color-rendering:auto;image-rendering:auto;shape-rendering:auto;text-rendering:auto;enable-background:accumulate"
     d="m 21.728458,15.984375 c -0.0041,-0.259774 -0.109213,-0.50774 -0.292969,-0.691406 L 17.900333,11.757812 C 17.620891,11.478151 17.20293,11.389354 16.833926,11.53125 l -9.1933586,3.535156 c -0.8553179,0.328544 -0.8553179,1.538644 0,1.867188 l 9.1933586,3.535156 c 0.369004,0.141896 0.786965,0.0531 1.066407,-0.226562 l 3.535156,-3.535157 c 0.191412,-0.191323 0.297113,-0.452053 0.292969,-0.722656 z m -2.414063,0.01563 -2.369141,2.369141 L 10.787051,16 16.945254,13.630859 Z"
     id="path846"
     inkscape:connector-curvature="0"
     sodipodi:nodetypes="ccccccccccccccc" />
  <path
     inkscape:connector-curvature="0"
     style="opacity:1;fill:#333333;fill-opacity:1;stroke:none;stroke-width:1.99273682;stroke-linecap:round;stroke-linejoin:round;stroke-miterlimit:4;stroke-dasharray:none;stroke-opacity:1;paint-order:stroke fill markers"
     d="M 20.728517,16 17.19336,12.464844 8.0000009,16 17.19336,19.535156 Z"
     id="rect835"
     sodipodi:nodetypes="ccccc" />
</svg>

<svg xmlns="http://www.w3.org/2000/svg" width="32" height="32" viewBox="0 0 32 32">
  <defs>
    <filter style="color-interpolation-filters:sRGB" id="a" x="-.122" width="1.245" y="-.118" height="1.235">
      <feGaussianBlur stdDeviation=".918"/>
    </filter>
  </defs>
  <path d="M12.188 10.026a1 1 0 0 0-.692.293l-3.535 3.535a1 1 0 0 0-.226 1.066l3.535 9.194c.328.855 1.538.855 1.867 0l3.535-9.194a1 1 0 0 0-.226-1.066l-3.536-3.535a1 1 0 0 0-.722-.293m.015 2.414 2.37 2.369-2.37 6.158-2.369-6.158z" style="color:#000;font-style:normal;font-variant:normal;font-weight:400;font-stretch:normal;font-size:medium;line-height:normal;font-family:sans-serif;font-variant-ligatures:normal;font-variant-position:normal;font-variant-caps:normal;font-variant-numeric:normal;font-variant-alternates:normal;font-feature-settings:normal;text-indent:0;text-align:start;text-decoration:none;text-decoration-line:none;text-decoration-style:solid;text-decoration-color:#000;letter-spacing:normal;word-spacing:normal;text-transform:none;writing-mode:lr-tb;direction:ltr;text-orientation:mixed;dominant-baseline:auto;baseline-shift:baseline;text-anchor:start;white-space:normal;shape-padding:0;clip-rule:nonzero;display:inline;overflow:visible;visibility:visible;opacity:.35;isolation:auto;mix-blend-mode:normal;color-interpolation:sRGB;color-interpolation-filters:linearRGB;solid-color:#000;solid-opacity:1;vector-effect:none;fill:#000;fill-opacity:1;fill-rule:nonzero;stroke:none;stroke-width:2;stroke-linecap:round;stroke-linejoin:round;stroke-miterlimit:4;stroke-dasharray:none;stroke-dashoffset:0;stroke-opacity:1;paint-order:stroke fill markers;filter:url(#a);color-rendering:auto;image-rendering:auto;shape-rendering:auto;text-rendering:auto;enable-background:accumulate" transform="rotate(90 13.479 18.275)"/>
  <path style="color:#000;font-style:normal;font-variant:normal;font-weight:400;font-stretch:normal;font-size:medium;line-height:normal;font-family:sans-serif;font-variant-ligatures:normal;font-variant-position:normal;font-variant-caps:normal;font-variant-numeric:normal;font-variant-alternates:normal;font-feature-settings:normal;text-indent:0;text-align:start;text-decoration:none;text-decoration-line:none;text-decoration-style:solid;text-decoration-color:#000;letter-spacing:normal;word-spacing:normal;text-transform:none;writing-mode:lr-tb;direction:ltr;text-orientation:mixed;dominant-baseline:auto;baseline-shift:baseline;text-anchor:start;white-space:normal;shape-padding:0;clip-rule:nonzero;display:inline;overflow:visible;visibility:visible;opacity:1;isolation:auto;mix-blend-mode:normal;color-interpolation:sRGB;color-interpolation-filters:linearRGB;solid-color:#000;solid-opacity:1;vector-effect:none;fill:#d3c6aa;fill-opacity:1;fill-rule:nonzero;stroke:none;stroke-width:2;stroke-linecap:round;stroke-linejoin:round;stroke-miterlimit:4;stroke-dasharray:none;stroke-dashoffset:0;stroke-opacity:1;paint-order:stroke fill markers;color-rendering:auto;image-rendering:auto;shape-rendering:auto;text-rendering:auto;enable-background:accumulate" d="M21.728 15.984a1 1 0 0 0-.293-.691L17.9 11.758a1 1 0 0 0-1.066-.227L7.64 15.066c-.856.329-.856 1.539 0 1.868l9.193 3.535a1 1 0 0 0 1.066-.227l3.535-3.535a1 1 0 0 0 .293-.723M19.314 16l-2.369 2.37L10.787 16l6.158-2.37Z"/>
  <path style="opacity:1;fill:#272e33;fill-opacity:1;stroke:none;stroke-width:1.99273682;stroke-linecap:round;stroke-linejoin:round;stroke-miterlimit:4;stroke-dasharray:none;stroke-opacity:1;paint-order:stroke fill markers" d="m20.729 16-3.536-3.535L8 16l9.193 3.535Z"/>
</svg>
